X: 29818
T: O'Connor Donn's
R: reel
M: 4/4
K: Gmajor
B2AG DG~G2|B2AG A2GA|FDFG A2fe|decA BG~G2|
BDAG DG~G2|B2AG A2GA|FDFG Adfe|decA ~G3z:|
a3f defa|defa ~d2de|edaf defd|eggf ~g3d|
faag faag|faag fada|fdab c'bag|1 fgad ~g3z:|2 fgad gedc||

